X:2
T:Cuffy
L:1/8
M:C|
K:G
ef|g2 ed BAGE|DEGA BA B2|DFAB cAFA|edBc d2 ef|
g2 ed BAGE|DEGA BA B2|DFAB cAFD|1 G2B2G2:|2 G2B2 G4||
|:Bd2B d4|dedB AB d2|e3 fe4|efed Bdef|
gfga gede|gded BAGE|DFAB cAFD|G2B2 G4:|]
